!!!OTL: In Festo Beata Maria Virginis Annuntiationis
**kern
*staff1
=--
*clefG2
*k[]
00r
=-
1a
2cc
2dd
1ee
1ee
=-
!LO:TX:Y=122:t=P
2dd
2cc
1b
1a
1cc
=-
2b
2a
4g
4f
2g
1a
1a
=-
!LO:TX:Y=124:t=P
2cc
2b
2cc
2dd
0ee
!!linebreak:original
=-
1cc
2ee
2dd
2cc
2b
1a
=-
!LO:TX:Y=-37:t=P
2.cc
4b
2a
2g
1a
1cc
=-
!LO:TX:Y=-40:t=P
2dd
2dd
0ee
1dd
=-
2cc
2dd
1ee
2ee
2dd
1cc
=-
!!linebreak:original
2cc
2dd
1ee
0dd
=-
!LO:TX:Y=-40:t=P
1cc
1dd
2ee
2dd
2cc
2b
=-
2cc
2dd
1.ee
4dd
4cc
0dd
=-
!!linebreak:original
00r
=-
1a
2cc
2dd
1.ee
2ee
=-
!LO:TX:Y=-37:t=P
2dd
2cc
1dd
1ee
1dd
=-
!LO:TX:Y=-37:t=P
1ee
2cc
2ee
2dd
2cc
1b
=-
!LO:TX:Y=-37:t=P
1a
1cc
2cc
2cc
2b
2a
=-
!LO:TX:Y=-38:t=P
1g
1a
2cc
2dd
1.ee
4dd
4cc
0dd
0dd
!!linebreak:original
=-
1b
0cc
=-
0ee
1cc
=-
!LO:TX:Y=-36:t=P
1cc
0cc
=-
0b
2cc
2dd
=-
!LO:TX:Y=-37:t=P
2ee
2cc
1b
1cc
=-
0b
0cc
0ee
0ff
=-
!!pagebreak:original
1ee
2ee
2ee
2dd
2cc
=-
1b
1cc
1cc
=-
1ee
1ee
1ff
=-
2ee
2dd
1cc
1b
=-
0b
0cc
1.ee
2ee
=-
1ee
1.ff
2ee
=-
1dd
1cc
2ff
2ee
=-
0cc
0ee
=-
!!linebreak:original
0r
=-
1dd
2ee
2dd
=-
2cc
2b
2a
2a
=-
!LO:TX:Y=-36:t=P
1b
1b
=-
2cc
2dd
2ee
2dd
=-
1cc
1dd
=-
1ee
1cc
=-
0dd
=-
0b
=-
!!linebreak:original
1a
1b
=-
!LO:TX:Y=-38:t=P
1cc
1b
=-
1cc
2b
2a
=-
!LO:TX:Y=-40:t=P
1g
1f
=-
2a
2a
2b
2b
=-
1cc
1b
=-
!LO:TX:Y=-40:t=P
1cc
2dd
2ee
=-
2ff
2dd
2ee
2ff
=-
1ee
2ee
2ee
=-
0ff
=-=
*-
!!title: @{OTL}, @{GTL}, ed. @{ENC}
!!!pag:
!!!GTL: Hymnbook C
!!!EFL: 
!!!YEM: Creative Commons CC/BY/NC/SA 4.0
!!!ENC: Marcin Konik
!!!END: 2015-0m-dd
!!!EED: Marcin Konik
!!!EEV: 
!!!ONB: Encoded in vim by Marcin Konik
!!!CharacterEncoding: utf-8
!!!RDF**kern: l=long note in original notation
!!!RDF**kern: i=editorial accidental
!!muse2ps: z14jc180F
!!!COM: Anonim
!!!CDT: [?]
!!!TXO: Polish
!!!ODT: 
!!!GTL: Hymnbook C
!!!ARL: Opactwo św. Wojciecha, Staniątki 
!!!voices:	1
